img/svg/net/vivaldi.svg

<?xml version="1.0" encoding="iso-8859-1"?>
<!-- Generator: Adobe Illustrator 21.0.2, SVG Export Plug-In . SVG Version: 6.00 Build 0)  -->
<svg version="1.1" id="&#x56FE;&#x5C42;_1" xmlns="http://www.w3.org/2000/svg" xmlns:xlink="http://www.w3.org/1999/xlink" x="0px"
	 y="0px" viewBox="0 0 16 16" style="enable-background:new 0 0 16 16;" xml:space="preserve">
<path d="M14.539,1H1.461C1.207,1,1,1.207,1,1.461v13.077C1,14.793,1.207,15,1.461,15h13.077C14.793,15,15,14.793,15,14.539V1.461
	C15,1.207,14.793,1,14.539,1z M13.102,5.294c-1.308,2.268-2.617,4.534-3.923,6.803c-0.243,0.421-0.595,0.676-1.079,0.711
	c-0.542,0.039-0.968-0.189-1.241-0.658C6.031,10.73,5.212,9.303,4.39,7.878c-0.5-0.867-1.001-1.733-1.499-2.601
	c-0.502-0.875,0.064-1.94,1.072-1.991c0.532-0.027,0.942,0.217,1.212,0.679c0.369,0.63,0.731,1.265,1.096,1.898
	c0.263,0.456,0.521,0.915,0.792,1.366c0.392,0.654,0.968,1.024,1.735,1.07c1.086,0.065,2.094-0.72,2.224-1.873
	c0.01-0.086,0.016-0.172,0.02-0.216c-0.006-0.373-0.076-0.687-0.224-0.984c-0.405-0.81,0.026-1.719,0.908-1.914
	c0.718-0.158,1.46,0.368,1.555,1.096C13.324,4.726,13.261,5.019,13.102,5.294z"/>
</svg>

<svg xmlns="http://www.w3.org/2000/svg" viewBox="0 0 16 16"><title>vivaldi</title><path d="M14.54,1H1.46A.46.46,0,0,0,1,1.46V14.54a.46.46,0,0,0,.46.46H14.54a.46.46,0,0,0,.46-.46V1.46A.46.46,0,0,0,14.54,1ZM13.1,5.29,9.18,12.1a1.31,1.31,0,0,1-1.08.71,1.25,1.25,0,0,1-1.24-.66C6,10.73,5.21,9.3,4.39,7.88l-1.5-2.6A1.31,1.31,0,0,1,4,3.29,1.26,1.26,0,0,1,5.17,4l1.1,1.9c.26.46.52.91.79,1.37A2.07,2.07,0,0,0,8.8,8.3,2.11,2.11,0,0,0,11,6.42c0-.09,0-.17,0-.22a2.2,2.2,0,0,0-.22-1,1.32,1.32,0,1,1,2.46-.82A1.37,1.37,0,0,1,13.1,5.29Z"/></svg>
